src/images/single-assets/USD3.svg

<svg xmlns="http://www.w3.org/2000/svg" width="1000" height="1000" fill="none"><g clip-path="url(#a)"><circle cx="500" cy="500" r="500" fill="#20A928"/><path fill="#fff" d="M282.105 586.278c2.078-13.496 4.083-27.043 6.107-40.568.243-1.623 3.349-.276 4.469.041 18.009 5.103 35.987 10.357 53.991 15.474 15.244 4.333 30.531 8.513 45.739 12.967 1.288.377 3.142 2.462 2.991 3.5-.794 5.459-1.823 10.933-3.374 16.224-3.413 11.636-3.304 23.41-1.538 35.168 2.224 14.807 6.945 28.73 18.68 38.893 6.35 5.501 13.099 10.8 20.398 14.883 10.526 5.887 22.148 9.419 34.188 10.649 16.778 1.713 32.517-1.542 47.472-9.89 10.681-5.962 19.579-13.644 25.897-23.762 8.584-13.746 13.926-28.939 16.166-45.095 1.659-11.971.902-23.505-2.824-35.311-5.386-17.069-16.91-28.443-31.192-37.481-7.31-4.625-15.551-7.876-23.588-11.227-8.156-3.401-16.573-6.177-24.887-9.195-6.207-2.252-12.431-4.456-18.493-6.626 6.496-23.91 12.795-47.017 19.04-70.138 1.652-6.119 3.168-7.203 10.061-5.396 6.047 1.585 12.028 3.569 18.169 4.613 9.876 1.681 19.912 2.432 29.785 4.13 14.034 2.413 27.592.138 39.699-6.344 17.953-9.613 27.05-26.607 32.529-45.543 4.052-14.008 4.977-28.188 1.182-42.56-3.426-12.973-9.892-23.816-20.577-31.992-13.764-10.532-29.577-15.986-46.628-17.559-11.138-1.027-22.429-.694-32.501 5.134-5.844 3.382-11.488 7.261-16.7 11.551-11.454 9.429-18.469 21.937-23.482 35.707-2.205 6.059-4.61 12.045-6.918 18.049l-100.763-28.241c3.638-9.821 6.763-19.543 10.828-28.855 3.749-8.587 8.476-16.751 12.828-25.072 12.91-24.687 31.531-40.597 53.495-57.019 6.019-4.501 12.396-8.928 19.277-11.786 13.977-5.805 28.353-10.697 43.48-12.836 20.299-2.87 43.731-1.029 63.943 2.998 24.878 4.957 50.728 14.112 72.954 26.06 14.417 7.75 27.758 16.851 39.814 28.154 10.631 9.968 19.956 20.782 27.532 33.09 27.778 45.125 27.181 103.602.289 149.154-8.353 14.149-18.868 25.92-31.618 35.913-4.101 3.214-8.423 6.269-13.012 8.703-5.819 3.086-11.938 5.65-18.067 8.089-4.955 1.971-10.116 3.423-15.527 5.218 1.899 1.446 3.29 2.458 4.632 3.531 8.045 6.433 13.967 14.613 19.914 22.949 9.14 12.81 16.36 26.513 20.095 41.686 2.581 10.484 4.197 21.378 4.692 32.161a127.7 127.7 0 0 1-4.638 40.536c-.869 3.087-1.637 6.203-2.455 9.305-3.823 14.493-8.697 28.61-16.735 41.343-5.725 9.07-11.696 18.044-18.303 26.478-5.426 6.925-11.424 13.61-18.116 19.283-8.686 7.363-18.033 14.049-27.617 20.218-8.399 5.406-17.105 10.847-26.424 14.18-76.18 27.241-160.294-2.078-223.203-46.803-11.73-8.339-20.415-19.627-28.057-31.504-5.564-8.648-9.89-18.172-14.065-27.616-11.456-25.911-13.303-59.884-9.034-87.613"/><path fill="#fff" d="M547.153 159.982a2.666 2.666 0 0 1 3.262-1.892l86.173 22.86a2.665 2.665 0 0 1 1.894 3.259l-26.253 98.831a2.666 2.666 0 0 1-3.262 1.892l-86.173-22.86a2.665 2.665 0 0 1-1.893-3.26zM404.598 696.648a2.666 2.666 0 0 1 3.261-1.892l86.174 22.86a2.665 2.665 0 0 1 1.893 3.26l-31.913 120.142a2.666 2.666 0 0 1-3.262 1.892l-86.174-22.86a2.665 2.665 0 0 1-1.893-3.26z"/></g><defs><clipPath id="a"><path fill="#fff" d="M0 0h1000v1000H0z"/></clipPath></defs></svg>

<svg width="1000" height="1000" viewBox="0 0 1000 1000" fill="none" xmlns="http://www.w3.org/2000/svg">
    <g clip-path="url(#clip0_5_70)">
        <circle cx="500" cy="500" r="500" fill="#20A928"/>
        <path d="M282.105 586.278C284.183 572.782 286.188 559.235 288.212 545.71C288.455 544.087 291.561 545.434 292.681 545.751C310.69 550.854 328.668 556.108 346.672 561.225C361.916 565.558 377.203 569.738 392.411 574.192C393.699 574.569 395.553 576.654 395.402 577.692C394.608 583.151 393.579 588.625 392.028 593.916C388.615 605.552 388.724 617.326 390.49 629.084C392.714 643.891 397.435 657.814 409.17 667.977C415.52 673.478 422.269 678.777 429.568 682.86C440.094 688.747 451.716 692.279 463.756 693.509C480.534 695.222 496.273 691.967 511.228 683.619C521.909 677.657 530.807 669.975 537.125 659.857C545.709 646.111 551.051 630.918 553.291 614.762C554.95 602.791 554.193 591.257 550.467 579.451C545.081 562.382 533.557 551.008 519.275 541.97C511.965 537.345 503.724 534.094 495.687 530.743C487.531 527.342 479.114 524.566 470.8 521.548C464.593 519.296 458.369 517.092 452.307 514.922C458.803 491.012 465.102 467.905 471.347 444.784C472.999 438.665 474.515 437.581 481.408 439.388C487.455 440.973 493.436 442.957 499.577 444.001C509.453 445.682 519.489 446.433 529.362 448.131C543.396 450.544 556.954 448.269 569.061 441.787C587.014 432.174 596.111 415.18 601.59 396.244C605.642 382.236 606.567 368.056 602.772 353.684C599.346 340.711 592.88 329.868 582.195 321.692C568.431 311.16 552.618 305.706 535.567 304.133C524.429 303.106 513.138 303.439 503.066 309.267C497.222 312.649 491.578 316.528 486.366 320.818C474.912 330.247 467.897 342.755 462.884 356.525C460.679 362.584 458.274 368.57 455.966 374.574C422.171 365.102 388.942 355.789 355.203 346.333C358.841 336.512 361.966 326.79 366.031 317.478C369.78 308.891 374.507 300.727 378.859 292.406C391.769 267.719 410.39 251.809 432.354 235.387C438.373 230.886 444.75 226.459 451.631 223.601C465.608 217.796 479.984 212.904 495.111 210.765C515.41 207.895 538.842 209.736 559.054 213.763C583.932 218.72 609.782 227.875 632.008 239.823C646.425 247.573 659.766 256.674 671.822 267.977C682.453 277.945 691.778 288.759 699.354 301.067C727.132 346.192 726.535 404.669 699.643 450.221C691.29 464.37 680.775 476.141 668.025 486.134C663.924 489.348 659.602 492.403 655.013 494.837C649.194 497.923 643.075 500.487 636.946 502.926C631.991 504.897 626.83 506.349 621.419 508.144C623.318 509.59 624.709 510.602 626.051 511.675C634.096 518.108 640.018 526.288 645.965 534.624C655.105 547.434 662.325 561.137 666.06 576.31C668.641 586.794 670.257 597.688 670.752 608.471C671.379 622.106 669.847 635.742 666.114 649.007C665.245 652.094 664.477 655.21 663.659 658.312C659.836 672.805 654.962 686.922 646.924 699.655C641.199 708.725 635.228 717.699 628.621 726.133C623.195 733.058 617.197 739.743 610.505 745.416C601.819 752.779 592.472 759.465 582.888 765.634C574.489 771.04 565.783 776.481 556.464 779.814C480.284 807.055 396.17 777.736 333.261 733.011C321.531 724.672 312.846 713.384 305.204 701.507C299.64 692.859 295.314 683.335 291.139 673.891C279.683 647.98 277.836 614.007 282.105 586.278Z"
              fill="white"/>
        <path d="M547.153 159.982C547.531 158.559 548.991 157.712 550.415 158.09L636.588 180.95C638.012 181.328 638.859 182.787 638.482 184.209L612.229 283.04C611.851 284.463 610.391 285.31 608.967 284.932L522.794 262.072C521.37 261.694 520.523 260.235 520.901 258.812L547.153 159.982Z"
              fill="white"/>
        <path d="M404.598 696.648C404.976 695.225 406.436 694.378 407.859 694.756L494.033 717.616C495.457 717.994 496.304 719.453 495.926 720.876L464.013 841.018C463.635 842.441 462.175 843.288 460.751 842.91L374.577 820.05C373.154 819.672 372.306 818.213 372.684 816.79L404.598 696.648Z"
              fill="white"/>
    </g>
    <defs>
        <clipPath id="clip0_5_70">
            <rect width="1000" height="1000" fill="white"/>
        </clipPath>
    </defs>
</svg>
